;Generated with Cura_SteamEngine 15.01
; Default start code
G28 ; Home extruder
G1 Z15 F100
M107 ; Turn off fan
G90 ; Absolute positioning
M82 ; Extruder in absolute mode
M190 S50
; Activate all used extruder
M104 T0 S220
G92 E0 ; Reset extruder position
; Wait for all used extruders to reach temperature
M109 T0 S220
;Layer count: 260
;LAYER:0
M107
G0 F9000 X36.239 Y36.239 Z0.300
;TYPE:SKIRT
G1 F1800 X38.681 Y34.024 E0.16448
G1 X41.330 Y32.059 E0.32903
G1 X44.159 Y30.363 E0.49359
G1 X47.140 Y28.954 E0.65809
G1 X50.245 Y27.843 E0.82262
G1 X53.444 Y27.042 E0.98714
G1 X56.706 Y26.558 E1.15167
G1 X60.000 Y26.396 E1.31620
G1 X63.293 Y26.558 E1.48069
G1 X66.555 Y27.042 E1.64522
G1 X69.754 Y27.843 E1.80974
G1 X72.859 Y28.954 E1.97427
G1 X75.840 Y30.363 E2.13877
G1 X78.669 Y32.059 E2.30333
G1 X81.318 Y34.023 E2.46785
G1 X83.761 Y36.239 E2.63240
G1 X85.976 Y38.682 E2.79692
G1 X87.940 Y41.330 E2.96140
G1 X89.636 Y44.159 E3.12596
G1 X91.045 Y47.140 E3.29046
G1 X92.156 Y50.245 E3.45499
G1 X92.957 Y53.444 E3.61951
G1 X93.441 Y56.706 E3.78404
G1 X93.604 Y60.000 E3.94858
G1 X93.441 Y63.294 E4.11311
G1 X92.957 Y66.555 E4.27759
G1 X92.156 Y69.754 E4.44211
G1 X91.045 Y72.859 E4.60664
G1 X89.636 Y75.840 E4.77114
G1 X87.940 Y78.669 E4.93570
G1 X85.976 Y81.317 E5.10018
G1 X83.761 Y83.761 E5.26474
G1 X81.317 Y85.976 E5.42929
G1 X78.669 Y87.940 E5.59377
G1 X75.840 Y89.636 E5.75833
G1 X72.859 Y91.045 E5.92283
G1 X69.754 Y92.156 E6.08736
G1 X66.555 Y92.957 E6.25189
G1 X63.294 Y93.441 E6.41636
G1 X60.000 Y93.604 E6.58090
G1 X57.159 Y93.464 E6.72281
G1 X56.704 Y93.441 E6.74554
G1 X53.444 Y92.957 E6.90996
G1 X50.245 Y92.156 E7.07449
G1 X47.140 Y91.045 E7.23902
G1 X44.159 Y89.636 E7.40351
G1 X41.330 Y87.940 E7.56807
G1 X38.682 Y85.976 E7.73255
G1 X36.239 Y83.761 E7.89707
G1 X34.023 Y81.318 E8.06163
G1 X32.059 Y78.669 E8.22615
G1 X30.363 Y75.840 E8.39071
G1 X28.954 Y72.859 E8.55521
G1 X27.843 Y69.754 E8.71973
G1 X27.042 Y66.555 E8.88426
G1 X26.558 Y63.293 E9.04878
G1 X26.396 Y60.000 E9.21327
G1 X26.558 Y56.706 E9.37781
G1 X27.042 Y53.444 E9.54233
G1 X27.843 Y50.245 E9.70686
G1 X28.954 Y47.140 E9.87138
G1 X30.363 Y44.159 E10.03588
G1 X32.059 Y41.330 E10.20044
G1 X34.024 Y38.681 E10.36499
G1 X36.239 Y36.239 E10.52948
G1 F2400 E6.52948
G0 F9000 X38.929 Y38.929
;TYPE:WALL-INNER
G1 F2400 E10.52948
G1 F1800 X41.093 Y36.965 E10.67527
G1 X43.441 Y35.224 E10.82110
G1 X45.958 Y33.715 E10.96752
G1 X48.590 Y32.471 E11.11275
G1 X51.349 Y31.484 E11.25894
G1 X54.192 Y30.772 E11.40516
G1 X57.077 Y30.344 E11.55067
G1 X60.000 Y30.200 E11.69668
G1 X62.922 Y30.344 E11.84263
G1 X65.807 Y30.772 E11.98814
G1 X68.650 Y31.484 E12.13436
G1 X71.409 Y32.471 E12.28055
G1 X74.041 Y33.715 E12.42579
G1 X76.558 Y35.224 E12.57220
G1 X78.900 Y36.961 E12.71767
G1 X81.071 Y38.929 E12.86386
G1 X83.038 Y41.099 E13.00998
G1 X84.775 Y43.441 E13.15545
G1 X86.284 Y45.958 E13.30187
G1 X87.528 Y48.590 E13.44711
G1 X88.515 Y51.349 E13.59330
G1 X89.227 Y54.192 E13.73951
G1 X89.655 Y57.076 E13.88497
G1 X89.800 Y60.000 E14.03103
G1 X89.655 Y62.923 E14.17704
G1 X89.227 Y65.807 E14.32250
G1 X88.515 Y68.650 E14.46872
G1 X87.528 Y71.409 E14.61491
G1 X86.284 Y74.041 E14.76015
G1 X84.775 Y76.558 E14.90656
G1 X83.038 Y78.900 E15.05203
G1 X81.071 Y81.071 E15.19819
G1 X78.900 Y83.038 E15.34434
G1 X76.558 Y84.775 E15.48981
G1 X74.041 Y86.284 E15.63623
G1 X71.409 Y87.528 E15.78147
G1 X68.650 Y88.515 E15.92766
G1 X65.807 Y89.227 E16.07387
G1 X62.923 Y89.655 E16.21933
G1 X59.999 Y89.800 E16.36539
G1 X57.077 Y89.655 E16.51135
G1 X54.192 Y89.227 E16.65686
G1 X51.349 Y88.515 E16.80308
G1 X48.590 Y87.528 E16.94927
G1 X45.958 Y86.284 E17.09451
G1 X43.441 Y84.775 E17.24092
G1 X41.099 Y83.038 E17.38639
G1 X38.929 Y81.071 E17.53251
G1 X36.961 Y78.900 E17.67870
G1 X35.224 Y76.558 E17.82417
G1 X33.715 Y74.041 E17.97058
G1 X32.471 Y71.409 E18.11582
G1 X31.484 Y68.650 E18.26201
G1 X30.772 Y65.807 E18.40823
G1 X30.344 Y62.922 E18.55374
G1 X30.200 Y60.000 E18.69969
G1 X30.344 Y57.077 E18.84570
G1 X30.772 Y54.192 E18.99121
G1 X31.484 Y51.349 E19.13743
G1 X32.471 Y48.590 E19.28362
G1 X33.715 Y45.958 E19.42886
G1 X35.224 Y43.441 E19.57527
G1 X36.965 Y41.093 E19.72110
G1 X38.929 Y38.929 E19.86690
G0 F9000 X38.645 Y38.645
;TYPE:WALL-OUTER
G1 F1800 X40.837 Y36.658 E20.01450
G1 X43.219 Y34.891 E20.16247
G1 X45.768 Y33.363 E20.31073
G1 X48.446 Y32.097 E20.45852
G1 X51.228 Y31.102 E20.60592
G1 X54.108 Y30.381 E20.75404
G1 X57.038 Y29.946 E20.90182
G1 X60.000 Y29.800 E21.04978
G1 X62.961 Y29.946 E21.19768
G1 X65.891 Y30.381 E21.34546
G1 X68.771 Y31.102 E21.49358
G1 X71.553 Y32.097 E21.64098
G1 X74.231 Y33.363 E21.78877
G1 X76.780 Y34.891 E21.93703
G1 X79.162 Y36.658 E22.08500
G1 X81.355 Y38.645 E22.23264
G1 X83.341 Y40.837 E22.38021
G1 X85.108 Y43.219 E22.52818
G1 X86.638 Y45.772 E22.67667
G1 X87.902 Y48.446 E22.82423
G1 X88.896 Y51.224 E22.97143
G1 X89.618 Y54.108 E23.11975
G1 X90.053 Y57.038 E23.26753
G1 X90.200 Y60.000 E23.41549
G1 X90.053 Y62.961 E23.56340
G1 X89.618 Y65.891 E23.71118
G1 X88.897 Y68.771 E23.85929
G1 X87.902 Y71.553 E24.00670
G1 X86.638 Y74.227 E24.15426
G1 X85.108 Y76.780 E24.30275
G1 X83.341 Y79.162 E24.45072
G1 X81.355 Y81.355 E24.59832
G1 X79.162 Y83.341 E24.74593
G1 X76.780 Y85.108 E24.89389
G1 X74.231 Y86.636 E25.04216
G1 X71.553 Y87.902 E25.18995
G1 X68.771 Y88.897 E25.33735
G1 X65.891 Y89.618 E25.48547
G1 X62.961 Y90.053 E25.63325
G1 X60.000 Y90.200 E25.78116
G1 X57.038 Y90.053 E25.92911
G1 X54.108 Y89.618 E26.07689
G1 X51.228 Y88.897 E26.22501
G1 X48.446 Y87.902 E26.37242
G1 X45.768 Y86.636 E26.52020
G1 X43.219 Y85.108 E26.66847
G1 X40.837 Y83.341 E26.81643
G1 X38.645 Y81.355 E26.96400
G1 X36.658 Y79.162 E27.11164
G1 X34.891 Y76.780 E27.25961
G1 X33.361 Y74.227 E27.40810
G1 X32.097 Y71.553 E27.55566
G1 X31.102 Y68.771 E27.70307
G1 X30.381 Y65.891 E27.85118
G1 X29.946 Y62.961 E27.99896
G1 X29.800 Y60.000 E28.14687
G1 X29.946 Y57.038 E28.29482
G1 X30.381 Y54.108 E28.44260
G1 X31.103 Y51.224 E28.59093
G1 X32.097 Y48.446 E28.73813
G1 X33.361 Y45.772 E28.88569
G1 X34.891 Y43.219 E29.03418
G1 X36.658 Y40.837 E29.18214
G1 X38.645 Y38.645 E29.32975
G0 F9000 X38.892 Y39.175
;TYPE:SKIN
G1 F1800 X80.823 Y81.105 E32.28817
G0 F9000 X81.106 Y80.823
G1 F1800 X39.175 Y38.892 E35.24663
G0 F9000 X39.472 Y38.624
G1 F1800 X81.375 Y80.526 E38.20308
G0 F9000 X81.643 Y80.229
G1 F1800 X39.769 Y38.354 E41.15755
G0 F9000 X38.623 Y39.472
G1 F1800 X80.526 Y81.374 E44.11400
G0 F9000 X80.229 Y81.643
G1 F1800 X38.354 Y39.768 E47.06850
G0 F9000 X38.085 Y40.065
G1 F1800 X79.932 Y81.912 E50.02104
G0 F9000 X79.635 Y82.181
G1 F1800 X37.816 Y40.361 E52.97163
G0 F9000 X37.547 Y40.658
G1 F1800 X79.338 Y82.450 E55.92024
G0 F9000 X79.042 Y82.719
G1 F1800 X37.277 Y40.954 E58.86699
G0 F9000 X37.015 Y41.258
G1 F1800 X78.739 Y82.981 E61.81081
G0 F9000 X78.413 Y83.222
G1 F1800 X36.775 Y41.583 E64.74863
G0 F9000 X36.534 Y41.908
G1 F1800 X78.089 Y83.463 E67.68056
G0 F9000 X77.764 Y83.704
G1 F1800 X36.292 Y42.232 E70.60663
G0 F9000 X36.052 Y42.557
G1 F1800 X77.439 Y83.944 E73.52671
G0 F9000 X77.114 Y84.186
G1 F1800 X35.811 Y42.882 E76.44089
G0 F9000 X35.570 Y43.207
G1 F1800 X76.790 Y84.427 E79.34919
G0 F9000 X76.463 Y84.666
G1 F1800 X35.331 Y43.533 E82.25131
G0 F9000 X35.119 Y43.887
G1 F1800 X76.110 Y84.878 E85.14344
G0 F9000 X75.756 Y85.090
G1 F1800 X34.907 Y44.240 E88.02560
G0 F9000 X34.694 Y44.594
G1 F1800 X75.403 Y85.302 E90.89780
G0 F9000 X75.049 Y85.514
G1 F1800 X34.482 Y44.947 E93.76002
G0 F9000 X34.271 Y45.302
G1 F1800 X74.695 Y85.726 E96.61215
G0 F9000 X74.342 Y85.938
G1 F1800 X34.059 Y45.655 E99.45434
G0 F9000 X33.847 Y46.009
G1 F1800 X73.988 Y86.151 E102.28654
G0 F9000 X73.606 Y86.334
G1 F1800 X33.663 Y46.391 E105.10473
G0 F9000 X33.482 Y46.775
G1 F1800 X73.222 Y86.515 E107.90860
G0 F9000 X72.838 Y86.697
G1 F1800 X33.300 Y47.159 E110.69822
G0 F9000 X33.118 Y47.543
G1 F1800 X72.453 Y86.878 E113.47352
G0 F9000 X72.069 Y87.060
G1 F1800 X32.937 Y47.927 E116.23453
G0 F9000 X32.755 Y48.311
G1 F1800 X71.685 Y87.242 E118.98129
G0 F9000 X71.297 Y87.419
G1 F1800 X32.577 Y48.699 E121.71319
G0 F9000 X32.429 Y49.117
G1 F1800 X70.880 Y87.568 E124.42612
G0 F9000 X70.463 Y87.717
G1 F1800 X32.280 Y49.533 E127.12017
G0 F9000 X32.131 Y49.950
G1 F1800 X70.046 Y87.865 E129.79528
G0 F9000 X69.630 Y88.014
G1 F1800 X31.982 Y50.367 E132.45151
G0 F9000 X31.833 Y50.784
G1 F1800 X69.213 Y88.163 E135.08884
G0 F9000 X68.795 Y88.311
G1 F1800 X31.684 Y51.200 E137.70722
G0 F9000 X31.556 Y51.637
G1 F1800 X68.359 Y88.441 E140.30390
G0 F9000 X67.906 Y88.554
G1 F1800 X31.442 Y52.090 E142.87664
G0 F9000 X31.329 Y52.542
G1 F1800 X67.454 Y88.667 E145.42545
G0 F9000 X67.001 Y88.780
G1 F1800 X31.216 Y52.995 E147.95027
G0 F9000 X31.102 Y53.447
G1 F1800 X66.550 Y88.894 E150.45129
G0 F9000 X66.097 Y89.007
G1 F1800 X30.989 Y53.899 E152.92835
G0 F9000 X30.888 Y54.364
G1 F1800 X65.632 Y89.108 E155.37972
G0 F9000 X65.140 Y89.182
G1 F1800 X30.815 Y54.856 E157.80157
G0 F9000 X30.742 Y55.349
G1 F1800 X64.647 Y89.255 E160.19379
G0 F9000 X64.155 Y89.328
G1 F1800 X30.668 Y55.841 E162.55648
G0 F9000 X30.595 Y56.334
G1 F1800 X63.662 Y89.401 E164.88953
G0 F9000 X63.170 Y89.475
G1 F1800 X30.522 Y56.826 E167.19306
G0 F9000 X30.471 Y57.341
G1 F1800 X62.656 Y89.526 E169.46389
G0 F9000 X62.117 Y89.552
G1 F1800 X30.444 Y57.880 E171.69855
G0 F9000 X30.418 Y58.419
G1 F1800 X61.578 Y89.579 E173.89706
G0 F9000 X61.039 Y89.606
G1 F1800 X30.391 Y58.958 E176.05944
G0 F9000 X30.364 Y59.497
G1 F1800 X60.500 Y89.633 E178.18570
G0 F9000 X59.958 Y89.656
G1 F1800 X30.341 Y60.040 E180.27530
G0 F9000 X30.371 Y60.635
G1 F1800 X59.363 Y89.627 E182.32084
G0 F9000 X58.767 Y89.597
G1 F1800 X30.400 Y61.230 E184.32229
G0 F9000 X30.430 Y61.825
G1 F1800 X58.172 Y89.567 E186.27964
G0 F9000 X57.576 Y89.538
G1 F1800 X30.459 Y62.420 E188.19292
G0 F9000 X30.501 Y63.028
G1 F1800 X56.968 Y89.495 E190.06031
G0 F9000 X56.304 Y89.397
G1 F1800 X30.600 Y63.692 E191.87390
G0 F9000 X30.699 Y64.357
G1 F1800 X55.640 Y89.299 E193.63366
G0 F9000 X54.976 Y89.200
G1 F1800 X30.797 Y65.021 E195.33962
G0 F9000 X30.896 Y65.685
G1 F1800 X54.312 Y89.101 E196.99175
G0 F9000 X53.570 Y88.925
G1 F1800 X31.072 Y66.427 E198.57910
G0 F9000 X31.261 Y67.182
G1 F1800 X52.815 Y88.736 E200.09985
G0 F9000 X52.060 Y88.547
G1 F1800 X31.450 Y67.937 E201.55400
G0 F9000 X31.652 Y68.705
G1 F1800 X51.292 Y88.345 E202.93971
G0 F9000 X50.413 Y88.031
G1 F1800 X31.966 Y69.584 E204.24124
G0 F9000 X32.280 Y70.464
G1 F1800 X49.532 Y87.716 E205.45847
G0 F9000 X48.653 Y87.402
G1 F1800 X32.594 Y71.344 E206.59148
G0 F9000 X33.101 Y72.416
G1 F1800 X47.581 Y86.896 E207.61312
G0 F9000 X46.508 Y86.389
G1 F1800 X33.609 Y73.490 E208.52322
G0 F9000 X34.305 Y74.751
G1 F1800 X45.247 Y85.693 E209.29523
G0 F9000 X43.834 Y84.846
G1 F1800 X35.150 Y76.163 E209.90790
G0 F9000 X36.601 Y78.179
G1 F1800 X41.819 Y83.396 E210.27602
G0 F9000 X81.913 Y79.933
G1 F1800 X40.066 Y38.086 E213.22856
G0 F9000 X40.362 Y37.816
G1 F1800 X82.182 Y79.636 E216.17918
G0 F9000 X82.450 Y79.339
G1 F1800 X40.658 Y37.547 E219.12783
G0 F9000 X40.955 Y37.278
G1 F1800 X82.720 Y79.043 E222.07458
G0 F9000 X82.982 Y78.739
G1 F1800 X41.258 Y37.016 E225.01840
G0 F9000 X41.584 Y36.775
G1 F1800 X83.222 Y78.414 E227.95622
G0 F9000 X83.464 Y78.090
G1 F1800 X41.908 Y36.534 E230.88822
G0 F9000 X42.233 Y36.293
G1 F1800 X83.705 Y77.765 E233.81429
G0 F9000 X83.945 Y77.440
G1 F1800 X42.557 Y36.052 E236.73444
G0 F9000 X42.883 Y35.812
G1 F1800 X84.186 Y77.115 E239.64859
G0 F9000 X84.427 Y76.791
G1 F1800 X43.207 Y35.571 E242.55688
G0 F9000 X43.534 Y35.332
G1 F1800 X84.666 Y76.464 E245.45897
G0 F9000 X84.878 Y76.110
G1 F1800 X43.887 Y35.119 E248.35110
G0 F9000 X44.241 Y34.907
G1 F1800 X85.091 Y75.757 E251.23329
G0 F9000 X85.303 Y75.403
G1 F1800 X44.595 Y34.695 E254.10546
G0 F9000 X44.948 Y34.483
G1 F1800 X85.515 Y75.050 E256.96768
G0 F9000 X85.726 Y74.695
G1 F1800 X45.302 Y34.272 E259.81978
G0 F9000 X45.656 Y34.059
G1 F1800 X85.938 Y74.342 E262.66193
G0 F9000 X86.151 Y73.988
G1 F1800 X46.010 Y33.847 E265.49409
G0 F9000 X46.392 Y33.664
G1 F1800 X86.334 Y73.606 E268.31222
G0 F9000 X86.515 Y73.222
G1 F1800 X46.776 Y33.482 E271.11605
G0 F9000 X47.160 Y33.301
G1 F1800 X86.697 Y72.838 E273.90560
G0 F9000 X86.879 Y72.454
G1 F1800 X47.544 Y33.119 E276.68090
G0 F9000 X47.928 Y32.937
G1 F1800 X87.061 Y72.070 E279.44194
G0 F9000 X87.242 Y71.686
G1 F1800 X48.312 Y32.756 E282.18866
G0 F9000 X48.700 Y32.578
G1 F1800 X87.420 Y71.298 E284.92057
G0 F9000 X87.568 Y70.881
G1 F1800 X49.117 Y32.430 E287.63349
G0 F9000 X49.534 Y32.280
G1 F1800 X87.718 Y70.464 E290.32758
G0 F9000 X87.866 Y70.047
G1 F1800 X49.951 Y32.132 E293.00269
G0 F9000 X50.367 Y31.983
G1 F1800 X88.015 Y69.630 E295.65892
G0 F9000 X88.164 Y69.213
G1 F1800 X50.785 Y31.834 E298.29621
G0 F9000 X51.202 Y31.686
G1 F1800 X88.312 Y68.796 E300.91453
G0 F9000 X88.442 Y68.360
G1 F1800 X51.638 Y31.556 E303.51125
G0 F9000 X52.091 Y31.443
G1 F1800 X88.555 Y67.907 E306.08398
G0 F9000 X88.668 Y67.455
G1 F1800 X52.543 Y31.330 E308.63279
G0 F9000 X52.996 Y31.217
G1 F1800 X88.781 Y67.002 E311.15762
G0 F9000 X88.895 Y66.550
G1 F1800 X53.448 Y31.103 E313.65859
G0 F9000 X53.900 Y30.990
G1 F1800 X89.008 Y66.098 E316.13565
G0 F9000 X89.109 Y65.633
G1 F1800 X54.365 Y30.889 E318.58703
G0 F9000 X54.857 Y30.815
G1 F1800 X89.183 Y65.141 E321.00892
G0 F9000 X89.255 Y64.648
G1 F1800 X55.350 Y30.742 E323.40113
G0 F9000 X55.842 Y30.669
G1 F1800 X89.329 Y64.156 E325.76382
G0 F9000 X89.402 Y63.663
G1 F1800 X56.335 Y30.596 E328.09688
G0 F9000 X56.827 Y30.522
G1 F1800 X89.475 Y63.171 E330.40040
G0 F9000 X89.526 Y62.656
G1 F1800 X57.342 Y30.472 E332.67116
G0 F9000 X57.880 Y30.445
G1 F1800 X89.553 Y62.117 E334.90582
G0 F9000 X89.580 Y61.579
G1 F1800 X58.420 Y30.419 E337.10433
G0 F9000 X58.959 Y30.392
G1 F1800 X89.607 Y61.040 E339.26671
G0 F9000 X89.634 Y60.501
G1 F1800 X59.498 Y30.365 E341.39297
G0 F9000 X60.041 Y30.342
G1 F1800 X89.657 Y59.959 E343.48257
G0 F9000 X89.627 Y59.363
G1 F1800 X60.636 Y30.372 E345.52805
G0 F9000 X61.231 Y30.401
G1 F1800 X89.598 Y58.768 E347.52949
G0 F9000 X89.568 Y58.172
G1 F1800 X61.826 Y30.431 E349.48680
G0 F9000 X62.421 Y30.460
G1 F1800 X89.538 Y57.577 E351.40005
G0 F9000 X89.497 Y56.970
G1 F1800 X63.029 Y30.502 E353.26752
G0 F9000 X63.693 Y30.600
G1 F1800 X89.398 Y56.305 E355.08114
G0 F9000 X89.299 Y55.641
G1 F1800 X64.358 Y30.699 E356.84090
G0 F9000 X65.022 Y30.798
G1 F1800 X89.200 Y54.976 E358.54679
G0 F9000 X89.102 Y54.312
G1 F1800 X65.686 Y30.897 E360.19888
G0 F9000 X66.428 Y31.073
G1 F1800 X88.925 Y53.570 E361.78616
G0 F9000 X88.736 Y52.815
G1 F1800 X67.183 Y31.262 E363.30684
G0 F9000 X67.938 Y31.451
G1 F1800 X88.547 Y52.060 E364.76092
G0 F9000 X88.345 Y51.293
G1 F1800 X68.706 Y31.653 E366.14659
G0 F9000 X69.585 Y31.967
G1 F1800 X88.031 Y50.413 E367.44806
G0 F9000 X87.717 Y49.533
G1 F1800 X70.465 Y32.281 E368.66528
G0 F9000 X71.344 Y32.595
G1 F1800 X87.403 Y48.653 E369.79829
G0 F9000 X86.897 Y47.581
G1 F1800 X72.416 Y33.101 E370.81997
G0 F9000 X73.489 Y33.608
G1 F1800 X86.389 Y46.508 E371.73013
G0 F9000 X85.692 Y45.246
G1 F1800 X74.751 Y34.304 E372.50212
G0 F9000 X76.163 Y35.151
G1 F1800 X84.847 Y43.834 E373.11478
G0 F9000 X83.397 Y41.819
G1 F1800 X78.179 Y36.601 E373.48294
;LAYER:1
M106 S63
G0 F9000 X78.900 Y36.961 Z0.500
;TYPE:WALL-INNER
G1 F2220 X81.071 Y38.929 E373.58040
G1 X83.038 Y41.099 E373.67782
G1 X84.775 Y43.441 E373.77480
G1 X86.281 Y45.954 E373.87224
G1 X87.529 Y48.594 E373.96936
G1 X88.515 Y51.349 E374.06669
G1 X89.225 Y54.182 E374.16383
G1 X89.656 Y57.087 E374.26150
G1 X89.800 Y60.000 E374.35851
G1 X89.656 Y62.912 E374.45548
